src/assets/images/messager_twitter.svg

<svg fill="none" height="70" viewBox="0 0 71 70" width="71" xmlns="http://www.w3.org/2000/svg"><path d="m70.8887 0h-70.000028v70h70.000028z" fill="#50abf1"/><path d="m14.791 48.8501c3.7381 2.3611 8.041 3.6763 12.4603 3.8087s8.7932-.9229 12.6659-3.0559 7.1025-5.2657 9.3527-9.0715 3.4385-8.1455 3.441-12.5668c0-.3401-.0063-.6786-.0189-1.0155.4928-.3889 3.5457-2.8341 4.2952-4.4086 0 0-2.4798 1.0297-4.9061 1.2722h-.022l.0126-.0079c.2235-.1496 3.3489-2.2783 3.7787-4.8132-1.3564.6903-2.7633 1.2767-4.2086 1.754-.4062.1354-.8313.2692-1.2706.392-1.3045-1.3919-3.0316-2.315-4.9138-2.626-1.8822-.3111-3.8144.0072-5.4974.9054-1.683.8983-3.0229 2.3264-3.8121 4.0633-.7891 1.7368-.9836 3.6854-.5532 5.5439-.6692-.0267-10.864-.5998-17.7917-8.9966 0 0-4.144 5.6587 2.4704 11.4749 0 0-2.0106-.0787-3.7457-1.1163 0 0-.6298 6.8553 6.8537 8.6077 0 0-1.4737.5573-3.826.1574 0 0 1.3163 5.5391 7.97 6.0571 0 0-5.2619 4.7533-12.7312 3.637z" fill="#fff"/></svg>

<svg width="71" height="70" viewBox="0 0 71 70" fill="none" xmlns="http://www.w3.org/2000/svg">
<path d="M70.8887 0H0.888672V70H70.8887V0Z" fill="#50ABF1"/>
<path d="M14.791 48.8501C18.5291 51.2112 22.832 52.5264 27.2513 52.6588C31.6706 52.7912 36.0445 51.7359 39.9172 49.6029C43.7899 47.4699 47.0197 44.3372 49.2699 40.5314C51.5201 36.7256 52.7084 32.3859 52.7109 27.9646C52.7109 27.6245 52.7046 27.286 52.692 26.9491C53.1848 26.5602 56.2377 24.115 56.9872 22.5405C56.9872 22.5405 54.5074 23.5702 52.0811 23.8127H52.0591L52.0717 23.8048C52.2952 23.6552 55.4206 21.5265 55.8504 18.9916C54.494 19.6819 53.0871 20.2683 51.6418 20.7456C51.2356 20.881 50.8105 21.0148 50.3712 21.1376C49.0667 19.7457 47.3396 18.8226 45.4574 18.5116C43.5752 18.2005 41.643 18.5188 39.96 19.417C38.277 20.3153 36.9371 21.7434 36.1479 23.4803C35.3588 25.2171 35.1643 27.1657 35.5947 29.0242C34.9255 28.9975 24.7307 28.4244 17.803 20.0276C17.803 20.0276 13.659 25.6863 20.2734 31.5025C20.2734 31.5025 18.2628 31.4238 16.5277 30.3862C16.5277 30.3862 15.8979 37.2415 23.3814 38.9939C23.3814 38.9939 21.9077 39.5512 19.5554 39.1513C19.5554 39.1513 20.8717 44.6904 27.5254 45.2084C27.5254 45.2084 22.2635 49.9617 14.7942 48.8454L14.791 48.8501Z" fill="white"/>
</svg>
